icons/mobile/20/svg/ad-blocker-cross-20.svg

<svg width="20" height="20" viewBox="0 0 20 20" fill="none" xmlns="http://www.w3.org/2000/svg">
<path d="M11.7197 7.21973C12.0126 6.92683 12.4874 6.92684 12.7803 7.21973C13.0732 7.51262 13.0732 7.98738 12.7803 8.28027L11.0605 10L12.7803 11.7197C13.0732 12.0126 13.0732 12.4874 12.7803 12.7803C12.4874 13.0732 12.0126 13.0732 11.7197 12.7803L10 11.0605L8.28027 12.7803C7.98738 13.0732 7.51262 13.0732 7.21973 12.7803C6.92684 12.4874 6.92683 12.0126 7.21973 11.7197L8.93945 10L7.21973 8.28027C6.92684 7.98738 6.92683 7.51262 7.21973 7.21973C7.51262 6.92683 7.98738 6.92684 8.28027 7.21973L10 8.93945L11.7197 7.21973Z" fill="black"/>
<path fill-rule="evenodd" clip-rule="evenodd" d="M10 2.5C11.1779 2.5 12.1839 2.67863 12.96 2.88281L13.1357 2.93555C13.5417 3.07117 13.9124 3.29698 14.2197 3.60547L16.5508 5.94238C17.1573 6.55154 17.5 7.37736 17.5 8.23828V11.7617C17.5 12.6219 17.1593 13.4477 16.5508 14.0576L14.2178 16.3955C13.8989 16.7158 13.4931 16.975 13.0244 17.1016C11.8126 17.4274 10.7568 17.501 10.001 17.501C8.97028 17.501 8.07134 17.3643 7.34277 17.1934L7.04102 17.1182C6.56614 16.993 6.13233 16.748 5.78125 16.3955L3.4502 14.0586C2.84364 13.4494 2.50098 12.6236 2.50098 11.7627V8.23926C2.50098 7.37902 2.84161 6.55324 3.4502 5.94336L5.78223 3.60449C6.10112 3.28426 6.50793 3.02691 6.97656 2.90039L6.97754 2.89941C8.18933 2.57354 9.24416 2.5 10 2.5ZM10 4C9.34199 4 8.4231 4.06467 7.36719 4.34863C7.18398 4.39811 7.00271 4.50548 6.8457 4.66309L6.84473 4.66406L4.51172 7.00293C4.1844 7.33103 4.00098 7.77557 4.00098 8.23926V11.7627C4.00098 12.2254 4.18475 12.6703 4.51172 12.999L6.84375 15.3359L6.84473 15.3369C7.00354 15.4962 7.19996 15.6092 7.42285 15.668L7.68555 15.7334C8.32007 15.8823 9.10317 16.001 10.001 16.001C10.659 16.001 11.5779 15.9363 12.6338 15.6523C12.817 15.6028 12.9993 15.4946 13.1562 15.3369L15.4893 12.998C15.8166 12.67 16 12.2254 16 11.7617V8.23828C16 7.77521 15.8157 7.32982 15.4883 7.00098L13.1562 4.66406C13.0372 4.54463 12.8969 4.45163 12.7402 4.3877L12.5781 4.33301C11.9022 4.1552 11.026 4 10 4Z" fill="black"/>
</svg>

<!-- This Source Code Form is subject to the terms of the Mozilla Public
   - License, v. 2.0. If a copy of the MPL was not distributed with this
   - file, You can obtain one at http://mozilla.org/MPL/2.0/. -->
<svg xmlns="http://www.w3.org/2000/svg" width="20" height="20" fill="none" viewBox="0 0 20 20">
    <path fill="#000" d="M11.72 7.22a.75.75 0 1 1 1.06 1.06L11.06 10l1.72 1.72a.75.75 0 1 1-1.06 1.06L10 11.06l-1.72 1.72a.75.75 0 1 1-1.06-1.06L8.94 10 7.22 8.28a.75.75 0 1 1 1.06-1.06L10 8.94z" />
    <path fill="#000" fill-rule="evenodd" d="M10 2.5c1.178 0 2.184.179 2.96.383l.176.053c.406.135.776.361 1.084.67l2.33 2.336c.607.61.95 1.435.95 2.296v3.524c0 .86-.34 1.686-.95 2.296l-2.332 2.337c-.32.32-.725.58-1.194.707a11.65 11.65 0 0 1-5.681.091l-.302-.075a2.77 2.77 0 0 1-1.26-.723l-2.33-2.336a3.26 3.26 0 0 1-.95-2.296V8.239c0-.86.34-1.686.95-2.296l2.331-2.339c.32-.32.726-.577 1.195-.704C8.19 2.573 9.245 2.5 10 2.5M10 4c-.658 0-1.577.065-2.633.349-.183.05-.364.156-.521.314l-.001.001-2.333 2.339A1.75 1.75 0 0 0 4 8.239v3.524c0 .462.184.907.51 1.236l2.333 2.337c.16.16.356.273.579.332l.263.065a10.14 10.14 0 0 0 4.948-.08c.183-.05.365-.158.522-.316l2.333-2.339A1.75 1.75 0 0 0 16 11.762V8.238c0-.463-.184-.908-.512-1.237l-2.332-2.337a1.3 1.3 0 0 0-.416-.276l-.162-.055A10.1 10.1 0 0 0 10 4" clip-rule="evenodd" />
</svg>
